X: 11842
M: 6/8
L: 1/8
K: G
|: (B/d/) |\
e2G Gce | d2G GBd | c2B A2G | FGA D2 (B/d/) |\
e2G Gce | d2G GBd | c2B BAG | AGF G2 :|


